X:1
T:Humours of Boston -- Hornpipe
R:hornpipe
B:Cole's 1000 Fiddle Tunes
M:2/4
L:1/16
K:Bb
vFE|DFGA .B2.B2|ABcd .e2.e2|dfdB cecA|cBAF .vF2vFuE|
DFGA .B2.B2|ABcd .e2.e2|dfdB cecA|B2B2B2:|
|:vde|fdfd .b2vaug|fedc .B2vcud|efgf edcB|ABcA .F2vFuE|
DFBD EGcB|ABcd egfe|dfdB cecA|B2B2B2:|
